X:1
T:Tanta beltade
T:Tanta beltade
T:Jhan Gero
T:Source : Trium vocum cantiones---Nürnberg---J.Petreius---1541. Editor : André Vierendeels (21/09/16).
T:Notes : Original clefs :C4, C4, F4 Editorial accidentals above the staff Original note values have been halved Square brackets indicate ligatures 
T:©
T:©
T:©
T:©
T:©
C:Jhan Gero
Z:©
%%score [ 1 2 3 ]
L:1/8
Q:1/4=114
M:2/2
K:F
V:1 treble-8 nm="Tenor 1" snm="T 1"
V:2 treble-8 nm="Tenor 2" snm="T 2"
V:3 bass nm="Bass" snm="B"
V:1
 z8 | z4 F4 | c2 c2 d2 B2 | c2 c2 d2 e2 | f6 ed | e4 c4 | d2 d2 d2 d2 | B4 c4- | c4 c4 | %9
w: |Tan-|ta bel- tad' e|in voi, e leg-|gia- * *|dra, che|per tal ri- mem-|bran- za,|_ null'|
 f3 e d2 c2 | B2 A2 B2 B2 | G4 F4 | z2 F2 F3 G | A2 B2 c4 | G2 G2 B2 B2 | F2 G2 A2 B2 | %16
w: al- tro chel mo-|rir per lei m'a-|van- za,|et qual- hor|gli oc- chi|gi- ro ver- so|di voi ma- don-|
 c2 BA G2 d2- | dc c4 B2 | c4 z2 c2 | c2 c2 A4 | F4 f3 e | d3 c B4 | c6 d2- | d2 cB A4 | G4 G2 G2 | %25
w: na un _ tant' ar-|* * do- *|re, in|mes' ac- cend'|in mod' e|u- na tal|fiam- *|* * * ma,|che tutt' a|
 c2 B2 G2 G2 | z2 G2 A2 F2 | c4 B4 | A4 z2 G2 | B2 F2 c4 | B4 A2 c2- | cB A4 G2 | A8 | z8 | %34
w: dram' a dram- ma,|in po- co|spa- ci-|o, e'n|un _ bre-|ve so- spi-||ro,||
 B4 B2 A2 | G2 G2 F2 c2 | c3 B A4 | G4 c4 | c2 c2 A2 B2 | c2 c2 c4 | d3 c B3 A | G2 c2 B2 A2 | %42
w: m'in- fiam- ma|l'al- m'el corp' ei|sens' el co-|re, che|sem- pr'a tutt' el-|bo- re, si|strug- ge'l cor in|si dol- ce lan-|
 G4 A4- | A8 | z2 F2 F2 F2 | GABG A4- | A8 | z2 F2 F2 F2 | GABG A2 c2 | c2 c2 d2 B2- | BAGF G4 | %51
w: gui- re,|_|et mo- rir|bra- * * * *|ma,|et mo- rir|bra- * * * ma, non|po- te mo- ri-||
 F2 c2 c2 c2 | d2 B3 AGF | G4 F4- | F8- | F8- | F8 |] %57
w: re, et non po-|te mo- ri- * *|* re.|_|||
V:2
 C4 F2 F2 | G2 E2 F4 | E4 F2 G2 | ABcA B2 c2- | c2 B2 c4- | c4 A4 | B2 B2 B2 B2 | G4 G2 G2 | %8
w: Tan- ta bel-|tad' e in|voi, e leg-|gia- * * * * *|* * dra,|_ che|per tal ri- mem-|bran- za, null'|
 c3 B A2 G2 | F2 G4 E2- | E2 F2 G2 F2- | F2 E2 F4- | F4 z4 | C4 C3 D | E2 F2 G4 | D2 D2 F2 F2 | %16
w: al- tro chel mo-|* rir- per|_ lei m'a- van-|* * za,|_|et qual- hor|gli'oc- chi gi-|ro ver- so di|
 C2 D2 E2 F2 | F2 E2 D4 | C8 | z2 c2 c2 c2 | A4 F4 | B3 A G3 F | G2 A3 G F2- | F2 E2 F4 | %24
w: voi ma- don' un|tant' ar- do-|re,|in mes' ac-|cend' in|mod', e u- na|tal fiam- * *|* * ma,|
 E4 E2 E2 | F2 D2 E4 | E4 z2 D2 | E2 C2 G4 | F4 E4 | z2 D2 E2 C2 | G4 F4 | E2 DC D4 | E4 F4 | %33
w: che tutt' a|dram- m'a dram-|ma, in|po- co spa-|* cio,|e'n un bre-|ve so-|spi- * * *|ro, m'in-|
 F3 E D2 C2 | D3 E F4 | D6 E2 | F8 | E4 E4 | E2 E2 F2 D2 | C2 C2 A4 | B3 A G2 G2 | E2 A2 G2 F2- | %42
w: fiam- ma l'alm' el|corp' _ ei|sens' el|co-|* re,|che sem- pr'a tut-|te l'ho- re,|si strug- ge'l cor|in si dol- ce|
 F2 E2 F2 C2 | C2 C2 DEFD | E2 D3 C F2- | F2 E2 F2 C2 | C2 C2 DEFD | E2 D3 C F2- | F2 E2 F2 A2 | %49
w: _ lan- gui- r'et|mo- rir bra- * * *||* * ma, et|mo- rir bra- * * *||* * ma, et|
 A2 A2 F2 G2- | GF F4 E2 | F2 A2 A2 A2 | F2 G3 F F2- | F2 E2 F4 | D4 D2 D2 | C2 C2 D4 | C8 |] %57
w: non po- te mo-|* * ri- *|re, et non po-|te mo- * ri-|* * re,|et non po-|te mo- ri-|re.|
V:3
 z4 F,,4 | C,2 C,2 D,2 B,,2 | C,4 B,,4 | F,3 E, D,2 C,2 | D,4 C,4- | C,4 F,4 | %6
w: Tan-|ta bel- tad' e'in|voi et|leg- * * gia-|* dra,|_ che|
 B,,2 B,,2 B,,2 B,,2 | _E,4 C,4 | C,4 F,3 E, | D,2 C,2 B,,2 A,,2 | G,,2 F,,2 B,,4 | C,4 F,,4- | %12
w: per tal ri- mem-|bran- za,|null' al- tro|chel mo- rir per|lei m'a- van-|* za,|
 F,,4 F,,4 | F,,3 G,, A,,2 B,,2 | C,4 G,,2 G,,2 | B,,2 B,,2 F,,3 G,, | A,,2 B,,2 C,2 D,2 | %17
w: _ et|qual- hor gli'oc- *|chi gi- ro,|ver- so di voi|ma- don' un tant'|
 B,,2 C,2 G,,4 | C,8- | C,4 F,4 | F,2 F,2 D,4 | B,,4 _E,3 D, | C,3 B,, A,,2 B,,2 | G,,4 F,,4 | %24
w: ar- * do-|re,|_ in|mes' ac- cend'|in mo- do,|e u- na tal|fiam- ma,|
 C,4 C,2 C,2 | A,,2 B,,2 C,4 | C,3 B,, A,,2 B,,2 | A,,4 z2 G,,2 | A,,2 F,,2 C,4 | B,,4 A,,4 | %30
w: che tutt' a|dram- m'a dram-|ma, a dram- *|ma,- in|po- co spa-|* cio,|
 z2 G,,2 A,,2 F,,2 | C,4 B,,4 | A,,4 F,,4 | B,,4 B,,2 A,,2 | G,,2 G,,2 F,,4 | G,,4 B,,2 A,,2 | %36
w: e'n un bre-|ve so-|spi- ro,|m'in fiam- ma|l'al- m'el corp'|ei sens' el|
 F,,3 G,, A,,2 B,,2 | C,4 A,,4 | A,,2 A,,2 F,,2 G,,2 | A,,2 A,,2 F,4 | B,,3 B,, B,,2 B,,2 | %41
w: co- * * *|re, che|sem- pr'a tut- te|l'ho- re, si|strug- ge'l cor in|
 C,2 F,,2 G,,2 A,,2 | B,,2 C,2 F,,4 | F,,4 F,,2 F,,2 | G,,A,,B,,G,, A,,2 B,,2 | G,,4 F,,4 | %46
w: si dol- ce lan-|gui- * re,|et mo- rir|bra- * * * * *|* ma,|
 F,,4 F,,2 F,,2 | G,,A,,B,,G,, A,,2 B,,2 | G,,4 F,,2 F,2 | F,2 F,2 D,2 _E,2- | E,2 D,2 C,4 | %51
w: et mo- rir|bra- * * * * *|* ma, et|non po- te mo-|* * ri-|
 F,,2 F,2 F,2 F,2 | D,2 _E,4 D,2 | C,4 F,,4 | B,,4 B,,2 B,,2 | A,,2 A,,2 B,,4 | F,,8 |] %57
w: re, et non po-|te mo- *|ri- re,|et non po-|te mo- ri-|re.|

